X: 19193
T: Isara
R: reel
M: 4/4
K: Edorian
|:Beed e2Be|edBA B3/2A/Bf|gggf gagf|gfed Bed/e/f|
Beed eeBe|edBA B3/2A/Bc|dddc dedc|dcBA BBcd:|
|:Beed eede|fffe fggf|Beed eede|fffe fgga|
bggf ggdg|bggf dddf|aggf gfed|dffd gdag:|

